X: 21449
T: Kevin McCann's
R: hornpipe
M: 4/4
K: Fmajor
(3CDE|:FEFA cAfc|dbge fcAF|BABc dcBA|(3GAG (3FED C2 (3CDE|
FEFA cAfc|dbge fcAF|BAGF (3Edc (3BAG|1 A2 F2 F2 (3CDE:|2 A2 F2 F2 (3cde||
|:fgaf gecA|BcdB cfAF|(3DFB (3dBF (3CFA (3cAF|GA=BG c2 (3cde|
fgaf gecA|dbge fcAF|BAGF (3Edc (3BAG|1 A2 F2 F2 (3cde:|2 A2 F2 F4||

